optimized/24/outline/matrix-score.svg

<svg viewBox="0 0 24 24" fill="none" xmlns="http://www.w3.org/2000/svg">
  <g clip-path="url(#clip0_2117_12150)">
    <path d="M8.91634 15.1384L5.71762 16.7628L5.70173 16.7706C5.11022 17.0533 4.46531 16.9673 3.99381 16.6568C3.51884 16.3439 3.16485 15.7551 3.29728 15.0555L3.82997 12.2369C3.83062 12.2335 3.83081 12.2297 3.82869 12.2238C3.82638 12.2174 3.81927 12.2025 3.79884 12.1844L1.53868 10.1882C1.02393 9.73397 0.886266 9.06839 1.09074 8.49646C1.29162 7.9346 1.79895 7.51486 2.4479 7.42875L5.57423 7.01512C5.67203 7.00222 5.72006 6.95123 5.73245 6.92842L7.12923 4.36213C7.4558 3.76256 8.0688 3.5 8.61943 3.5C9.17006 3.5 9.78295 3.76236 10.1095 4.36193L11.4502 6.82366C11.4911 6.843 11.5494 6.8663 11.6247 6.891C11.6632 6.90364 11.7026 6.91549 11.7419 6.92651L13.0656 4.24679C13.5099 3.34798 14.7927 3.34798 15.237 4.24679L17.0337 7.88193C17.2098 8.2388 17.5496 8.48626 17.9438 8.54352L21.9631 9.12944C22.9561 9.27464 23.3513 10.4935 22.6326 11.1919L19.7262 14.0203C19.4405 14.2984 19.3105 14.6982 19.3781 15.0909L20.064 19.0839C20.2329 20.0717 19.1948 20.8253 18.3072 20.358L14.7149 18.4714C14.3627 18.2863 13.9409 18.2863 13.5877 18.4714L9.99534 20.358C9.10774 20.8253 8.06966 20.0717 8.2396 19.0839L8.91634 15.1384ZM8.42074 5.08325L7.02419 7.64912C6.76264 8.12995 6.28014 8.42823 5.76495 8.49616L2.6395 8.90967C2.57411 8.91835 2.53564 8.94011 2.51449 8.957C2.49189 8.97505 2.48159 8.99331 2.47743 9.00495C2.4735 9.01594 2.47478 9.02092 2.47493 9.02153C2.47509 9.02217 2.47584 9.02508 2.47919 9.03053C2.48253 9.03597 2.49079 9.0474 2.50761 9.06224L4.76832 11.0589C5.17395 11.4174 5.38363 11.9621 5.27838 12.5181L4.74569 15.3367C4.74366 15.3474 4.74511 15.3503 4.74641 15.3529C4.75012 15.3607 4.76369 15.3822 4.79791 15.4047C4.86828 15.4511 4.96965 15.4665 5.06679 15.4225L8.31976 13.7705L5.66997 11.1919C4.95129 10.4935 5.34646 9.27464 6.33951 9.12944L10.3588 8.54352C10.5976 8.50883 10.8168 8.40434 10.9917 8.24801C10.8976 8.21124 10.8014 8.16814 10.7102 8.11779C10.5846 8.04838 10.3547 7.90528 10.2153 7.64881L8.81815 5.0833C8.79912 5.04841 8.74038 4.99359 8.61943 4.99359C8.49854 4.99359 8.43979 5.04836 8.42074 5.08325ZM5.06679 15.4225L5.07244 15.4198L5.05655 15.4277L5.06679 15.4225ZM18.704 12.9436L21.1888 10.5256L17.7337 10.0219C16.8661 9.89559 16.1094 9.34927 15.7149 8.55048L14.1514 5.38709L12.5889 8.55018C12.1936 9.35068 11.4342 9.89593 10.5682 10.022L7.11375 10.5256L9.59858 12.9436C10.2345 13.5628 10.5295 14.4615 10.3774 15.3473L9.78782 18.7845L12.91 17.1449C13.6876 16.7374 14.6155 16.7364 15.3942 17.1457L18.5157 18.785L17.9251 15.3469C17.7728 14.461 18.068 13.5629 18.704 12.9436Z" fill="#333333"/>
  </g>
  <defs>
    <clipPath id="clip0_2117_12150">
      <rect width="24" height="24" fill="white"/>
    </clipPath>
  </defs>
</svg>

<svg xmlns="http://www.w3.org/2000/svg" width="24" height="24" fill="none">
  <g clip-path="url(#a)">
    <path fill="#333" d="m8.916 15.138-3.198 1.625-.016.008a1.739 1.739 0 0 1-1.708-.114c-.475-.313-.83-.902-.697-1.601l.533-2.82-.001-.012a.102.102 0 0 0-.03-.04l-2.26-1.996a1.542 1.542 0 0 1-.448-1.692c.2-.561.708-.981 1.357-1.067l3.126-.414c.098-.013.146-.064.158-.087L7.13 4.362c.327-.6.94-.862 1.49-.862.551 0 1.164.262 1.49.862l1.341 2.462c.041.019.1.042.175.067.038.013.078.024.117.036l1.324-2.68c.444-.899 1.727-.899 2.171 0l1.797 3.635c.176.357.516.604.91.662l4.02.585c.992.146 1.387 1.364.669 2.063l-2.907 2.828a1.207 1.207 0 0 0-.348 1.07l.686 3.994c.169.988-.87 1.741-1.757 1.274l-3.592-1.887a1.213 1.213 0 0 0-1.127 0l-3.593 1.887c-.887.467-1.925-.286-1.755-1.274l.676-3.946ZM8.421 5.083 7.024 7.65c-.261.48-.744.78-1.26.847L2.64 8.91a.248.248 0 0 0-.125.047.112.112 0 0 0-.037.048c-.003.01-.002.016-.002.017 0 0 0 .003.004.009a.149.149 0 0 0 .029.031l2.26 1.997c.406.358.616.903.51 1.46l-.532 2.818c-.002.01 0 .013 0 .016.004.008.018.03.052.052a.28.28 0 0 0 .269.018L8.32 13.77l-2.65-2.58c-.719-.698-.324-1.916.67-2.062l4.019-.585a1.21 1.21 0 0 0 .633-.296 2.37 2.37 0 0 1-.282-.13 1.223 1.223 0 0 1-.495-.47L8.818 5.084c-.019-.035-.078-.09-.199-.09-.12 0-.18.055-.198.09Zm-3.354 10.34.005-.003-.015.008.01-.006Zm13.637-2.48 2.485-2.417-3.455-.504a2.684 2.684 0 0 1-2.02-1.472l-1.563-3.163L12.59 8.55a2.688 2.688 0 0 1-2.02 1.472l-3.455.504 2.485 2.418c.636.619.93 1.517.778 2.403l-.59 3.438 3.123-1.64a2.672 2.672 0 0 1 2.484 0l3.122 1.64-.59-3.438a2.713 2.713 0 0 1 .778-2.403Z"/>
  </g>
  <defs>
    <clipPath id="a">
      <path fill="#fff" d="M0 0h24v24H0z"/>
    </clipPath>
  </defs>
</svg>
